X:2351
T:The Sea Invocation 
C: Mrs Shimmin, Foxdale 
C:Traditional
O:Isle of Man
S:Collected by Mona Douglas
B:Kiaull Vannin 351 
M:4/4 
L:1/4 
Q:150 
K:G 
B-B/>A A// B>A|B B/ A// (GF)|G2 G>A|B E E2|e2 B>A|B E E2|G A B>A|B (B/A//) (GF)| 
G2 G>A|B E E2|e2 B>A|B E E2|G A B>A|B B/>A/ (GF)|G B e>B| B A (GF)|
B>A B>A|B B/>A (GF)|G2 G>A|B E E2|e2 B>A|G E E2-|E2 z2| 

